packages/vibrant-icons/assets/icons/BellOff/Thin.svg

<svg width="24" height="24" viewBox="0 0 24 24" fill="none" xmlns="http://www.w3.org/2000/svg">
<path d="M6.01233 17H13.8123L15.3123 18.5H3.26233C3.11233 18.5 3.01233 18.4 3.01233 18.25V17.25C3.01233 17.1 3.11233 17 3.26233 17H4.51233V7.69999L6.01233 9.14999V17Z" fill="#0C0C0C"/>
<path d="M2.06228 2.8L2.76228 2.1C2.86228 2 3.01228 2 3.11228 2.1L5.61228 4.6C6.96228 2.45 9.31228 1 12.0123 1C16.1123 1 19.5123 4.4 19.5123 8.5V17H20.7623C20.9123 17 21.0123 17.1 21.0123 17.25V18.25C21.0123 18.4 20.9123 18.5 20.7623 18.5H19.5623L21.9123 20.85C22.0123 20.95 22.0123 21.1 21.9123 21.2L21.2123 21.9C21.1123 22 20.9623 22 20.8623 21.9L2.06228 3.15C2.01228 3.05 2.01228 2.9 2.06228 2.8ZM18.0123 8.5C18.0123 5.2 15.3123 2.5 12.0123 2.5C9.71228 2.5 7.76228 3.8 6.71228 5.65L18.0123 16.95V8.5Z" fill="#0C0C0C"/>
<path d="M12.0124 23C11.184 23 10.5124 22.3284 10.5124 21.5C10.5124 20.6716 11.184 20 12.0124 20C12.8408 20 13.5124 20.6716 13.5124 21.5C13.5124 22.3284 12.8408 23 12.0124 23Z" fill="#0C0C0C"/>
</svg>

<svg xmlns="http://www.w3.org/2000/svg" width="24" height="24" fill="none"><path fill="#0C0C0C" d="M6.012 17h7.8l1.5 1.5H3.262c-.15 0-.25-.1-.25-.25v-1c0-.15.1-.25.25-.25h1.25V7.7l1.5 1.45zM2.062 2.8l.7-.7c.1-.1.25-.1.35 0l2.5 2.5c1.35-2.15 3.7-3.6 6.4-3.6 4.1 0 7.5 3.4 7.5 7.5V17h1.25c.15 0 .25.1.25.25v1c0 .15-.1.25-.25.25h-1.2l2.35 2.35c.1.1.1.25 0 .35l-.7.7c-.1.1-.25.1-.35 0L2.062 3.15a.43.43 0 0 1 0-.35m15.95 5.7c0-3.3-2.7-6-6-6-2.3 0-4.25 1.3-5.3 3.15l11.3 11.3zM12.012 23a1.5 1.5 0 1 1 0-3 1.5 1.5 0 0 1 0 3"/></svg>
